!!!COM: Palestrina, Giovanni Perluigi da
!!!OPR: Missa Tu es pastor ovium
!!!OTL: Kyrie II
**kern	**kern	**kern	**kern	**kern
*Ibass	*Itenor	*Itenor	*Icalto	*Icant
!Bassus	!Tenor 2	!Tenor 1	!Altus	!Cantus
*clefF4	*clefGv2	*clefGv2	*clefG2	*clefG2
*k[b-]	*k[b-]	*k[b-]	*k[b-]	*k[b-]
*G:dor	*G:dor	*G:dor	*G:dor	*G:dor
*M4/2	*M4/2	*M4/2	*M4/2	*M4/2
=1	=1	=1	=1	=1
0D	0f#	1r	0a	0r
.	.	[1d	.	.
=2	=2	=2	=2	=2
1G	2.g	1d]	1b	0r
.	4f	.	.	.
1C	4e	1e	[1cc	.
.	4d	.	.	.
.	4c	.	.	.
.	4B-	.	.	.
=3	=3	=3	=3	=3
2F	2A	1.f	2cc]	0r
2D	2d	.	2b-	.
2F	2.c	.	2a	.
2C	.	2e	2g	.
.	4B-	.	.	.
=4	=4	=4	=4	=4
2.D	2A	2d	2f	0r
.	2.f	2d	1a	.
4E	.	.	.	.
2F	.	2c	.	.
.	4e	.	.	.
2G	4d	2B-	[2g	.
.	4c	.	.	.
=5	=5	=5	=5	=5
1D	2.d	1A	2g]	0dd
.	.	.	2f#	.
.	4c	.	.	.
1G	1B	1G	1g	.
=6	=6	=6	=6	=6
1C	1c	2r	1g	1ee
.	.	1c	.	.
1r	1F	.	1a	[1ff
.	.	[2d	.	.
=7	=7	=7	=7	=7
0r	1G	2d]	1.b-	2ff]
.	.	2e	.	2ee
.	1F	1f	.	2dd
.	.	.	2a	2cc
=8	=8	=8	=8	=8
0r	2.G	1d	1g	2b-
.	.	.	.	1dd
.	4A	.	.	.
.	2B-	1r	2f	.
.	2c	.	2e	[2cc
=9	=9	=9	=9	=9
1r	1d	2r	1f	2cc]
.	.	1d	.	4b-
.	.	.	.	4a
1G	2r	.	1g	1b
.	2g	[2e	.	.
=10	=10	=10	=10	=10
1A	2c	2e]	2r	1cc
.	2c	2.f	2cc	.
[1B-	[1d	.	2f	1r
.	.	4e	.	.
.	.	4d	2f	.
.	.	4c	.	.
=11	=11	=11	=11	=11
2B-]	2d]	2B-	2g	1r
2A	1c	2c	2f	.
1G	.	2d	1g	2r
.	2B-	2G	.	[2dd
=12	=12	=12	=12	=12
2F	2A	2A	0r	2dd]
2E	2G	1c	.	2ee
1D	1F	.	.	[1ff
.	.	2B	.	.
=13	=13	=13	=13	=13
2C	0r	1c	0g	2ff]
1c	.	.	.	2ee
.	.	2G	.	1dd
2B-	.	2d	.	.
=14	=14	=14	=14	=14
1A	2r	2e	1a	1cc
.	2c	2f	.	.
1G	2d	1g	1b-	2r
.	2e	.	.	2g
=15	=15	=15	=15	=15
0r	2f	2d	2a	2a
.	1g	2G	2g	2b-
.	.	1r	[1a	2cc
.	2f	.	.	[2dd
=16	=16	=16	=16	=16
1r	1e	1.A	1a]	2dd]
.	.	.	.	2cc#
1D	1d	.	1f	1dd
.	.	2B-	.	.
=17	=17	=17	=17	=17
2E	2g	1.c	2r	0r
1F	2.f	.	1a	.
.	4e	.	.	.
2G	[2d	2B-	2g	.
=18	=18	=18	=18	=18
2D	2d]	2A	2f	1r
2E-	2c	2G	1g	.
1D	1d	1A	.	1a
.	.	.	2f#	.
=19	=19	=19	=19	=19
1G	2r	1G	2g	1b-
.	2d	.	2g	.
1r	2e	1r	2g	[1cc
.	[2f	.	[2a	.
=20	=20	=20	=20	=20
0r	2f]	0r	2a]	2cc]
.	2g	.	2g	2b-
.	2d	.	2f	2a
.	2e-	.	[2g	2g
=21	=21	=21	=21	=21
1r	1d	2r	2g]	2a
.	.	2d	2f	1dd
1A	1a	2e	2e	.
.	.	[2f	2a	2cc
=22	=22	=22	=22	=22
1B-	2f	2f]	1d	4dd
.	.	.	.	4cc
.	2.g	2d	.	4b-
.	.	.	.	4a
[1c	.	4e	1r	[1g
.	4f	4f	.	.
.	4e	4g	.	.
.	4d	4f	.	.
=23	=23	=23	=23	=23
2c]	2c	2e	0r	1g]
2B-	2d	2d	.	.
2A	2e	2c	.	2a
2G	2g	[2d	.	2b-
=24	=24	=24	=24	=24
0A	2f	2d]	0r	0a
.	1e	2c	.	.
.	.	1f	.	.
.	[2d	.	.	.
=25	=25	=25	=25	=25
1A	2d]	2e	0a	1r
.	2c#	2e	.	.
1D	2d	1f#	.	[1dd
.	[2d	.	.	.
=26	=26	=26	=26	=26
1G	2d]	2.g	1b	1dd]
.	2G	.	.	.
.	.	4f	.	.
1C	1g	4e	[1cc	1ee
.	.	4d	.	.
.	.	4c	.	.
.	.	4B-	.	.
=27	=27	=27	=27	=27
2F	2a	2A	2cc]	2ff
2G	2g	4B-	2b-	1dd
.	.	4c	.	.
2D	2f#	2d	2a	.
2E-	[2g	2G	2g	2cc
=28	=28	=28	=28	=28
0D	2g]	0d	0a	0dd
.	4f#	.	.	.
.	4e	.	.	.
.	1f#	.	.	.
=29	=29	=29	=29	=29
1G	2g	2r	[0g	1b
.	2d	2.d	.	.
1C	2e-	.	.	2cc
.	.	4c	.	.
.	2c	[2c	.	[2ee
=30	=30	=30	=30	=30
1G	1d	4c]	1g_	4ee]
.	.	4B	.	4dd
.	.	2B	.	2dd
1C	1e-	1c	1g_	1cc
=31	=31	=31	=31	=31
0G	0d	0B	0g]	0dd
==	==	==	==	==
*-	*-	*-	*-	*-
!!!CDT: 1525/^1526/-1594/2/2
!!!OCY: Italia
!!!AGN: Mass (Parody)
!!!AST: renaissance, vocal
!!!ASW: Motet (Palestrina)
!!!PWK: Masses, Book 7
!!!RNB: Cadence finals: D
!!!YOR: Le Opere Complete, v. 23, p. 115
!!!YOO: Rome, Italy: Fratelli Scalera
!!!END: 1992//
!!!EED: John Miller
!!!YEC: Copyright 2000, John Miller
!!!YEN: United States of America
!!!YEM: Rights to all derivative electronic formats reserved.
!!!YEM: Refer to licensing agreement for further details.
!!!YEM: This file must be accompanied by the licensing agreement.
!!!YEM: A copy of the licensing agreement may be found at http://www.music-cog.ohio-state.edu/HumdrumDatabases/Palestrina/license.txt
!!!EMD: converted to Humdrum by Bret Aarden
